X:1
T:Bonar (Calkin), 88.7 D
T:Bonar (Calkin), 88.7 D
T:John Baptiste Calkin, 1867
T:Public Domain Courtesy of the Cyber Hymnal™
C:John Baptiste Calkin, 1867
Z:Public Domain
Z:Courtesy of the Cyber Hymnal™
%%score ( 1 2 ) ( 3 4 )
L:1/8
Q:1/4=108
M:4/4
K:A
V:1 treble 
V:2 treble 
V:3 bass 
V:4 bass 
V:1
 E3 z E [FA]2 [EA]2 | [DG]2 (FG) [DF]2 [DE]2 | E3 z E [^DA]2 [EA]2 | [^DA]2 (GA) [EB]2 [=DE]2 | %4
 [Cc]3 [^Dc] [EB]2 E2 | [EA]2 [^DF]2 E4 | E3 [EF] [EG]2 [EB]2 | [EA]2 [EG]2 [DF]2 [CE]2 | %8
 [EG]3 [FA] [GB]2 [Ac]2 | [Ee]2 [Ed]2 [Ec]2 [EB]2 | [^Ec]3 [GB] A2 [A,=E]2 | [A,F]4 [B,A]4 | %12
 [CA]8 |] %13
V:2
 C2 D2 x5 | x2 D2 x4 | C2 ^D2 x5 | x2 =D2 x4 | x6 E2 | x4 E4 | E3 x5 | x8 | x8 | x8 | x4 A2 x2 | %11
 x8 | x8 |] %13
V:3
 [A,,A,]2 [A,,B,]2 [A,D]2 [A,C]2 x | [E,B,]2 (A,B,) [E,A,]2 [E,G,]2 | %2
 [A,,A,]2 [A,,B,]2 [A,,^B,]2 [A,,C]2 x | [F,B,]2 [=F,B,]2 [E,A,]2 [E,G,]2 | %4
 [A,,A,]3 [A,,A,] [G,,B,]2 [C,G,]2 | [A,,C]2 (B,A,) [E,G,]4 | [E,G,]3 [E,A,] [E,B,]2 [E,D]2 | %7
 [A,,C]2 [A,,A,]2 [A,,A,]2 [A,,A,]2 | [E,E]3 [E,^D] [E,=D]2 [E,C]2 | [F,A,]2 [G,B,]2 A,2 G,2 | %10
 [C,G,]3 [^E,D] (CA,) [C,=G,]2 | [D,F,]4 (F,2 =F,2) | [A,,E,]8 |] %13
V:4
 x9 | x2 E,2 x4 | x9 | x8 | x8 | x2 B,,2 x4 | x8 | x8 | x8 | x4 A,2 (E,D,) | x4 F,2 x2 | x4 D,4 | %12
 x8 |] %13

